src/assets/images/home/dotLighterImg.svg

<svg width="76" height="75" viewBox="0 0 76 75" fill="none" xmlns="http://www.w3.org/2000/svg">
<path opacity="0.3" d="M73.0696 5.7836C71.455 5.7836 70.1393 4.48525 70.1393 2.89181C70.1393 1.29836 71.455 0 73.0696 0C74.6843 0 76 1.29836 76 2.89181C76 4.49508 74.6843 5.7836 73.0696 5.7836ZM76 20.1934C76 18.6 74.6843 17.3016 73.0696 17.3016C71.455 17.3016 70.1393 18.6 70.1393 20.1934C70.1393 21.7869 71.455 23.0852 73.0696 23.0852C74.6843 23.0852 76 21.7967 76 20.1934ZM76 37.4951C76 35.9016 74.6843 34.6033 73.0696 34.6033C71.455 34.6033 70.1393 35.9016 70.1393 37.4951C70.1393 39.0885 71.455 40.3869 73.0696 40.3869C74.6843 40.3967 76 39.0984 76 37.4951ZM76 54.8066C76 53.2131 74.6843 51.9148 73.0696 51.9148C71.455 51.9148 70.1393 53.2131 70.1393 54.8066C70.1393 56.4 71.455 57.6984 73.0696 57.6984C74.6843 57.6984 76 56.4 76 54.8066ZM76 72.1082C76 70.5147 74.6843 69.2164 73.0696 69.2164C71.455 69.2164 70.1393 70.5147 70.1393 72.1082C70.1393 73.7016 71.455 75 73.0696 75C74.6843 75 76 73.7016 76 72.1082ZM58.4676 2.89181C58.4676 1.29836 57.152 0 55.5373 0C53.9226 0 52.6069 1.29836 52.6069 2.89181C52.6069 4.48525 53.9226 5.7836 55.5373 5.7836C57.152 5.7836 58.4676 4.49508 58.4676 2.89181ZM58.4676 20.1934C58.4676 18.6 57.152 17.3016 55.5373 17.3016C53.9226 17.3016 52.6069 18.6 52.6069 20.1934C52.6069 21.7869 53.9226 23.0852 55.5373 23.0852C57.152 23.0852 58.4676 21.7967 58.4676 20.1934ZM58.4676 37.4951C58.4676 35.9016 57.152 34.6033 55.5373 34.6033C53.9226 34.6033 52.6069 35.9016 52.6069 37.4951C52.6069 39.0885 53.9226 40.3869 55.5373 40.3869C57.152 40.3967 58.4676 39.0984 58.4676 37.4951ZM58.4676 54.8066C58.4676 53.2131 57.152 51.9148 55.5373 51.9148C53.9226 51.9148 52.6069 53.2131 52.6069 54.8066C52.6069 56.4 53.9226 57.6984 55.5373 57.6984C57.152 57.6984 58.4676 56.4 58.4676 54.8066ZM58.4676 72.1082C58.4676 70.5147 57.152 69.2164 55.5373 69.2164C53.9226 69.2164 52.6069 70.5147 52.6069 72.1082C52.6069 73.7016 53.9226 75 55.5373 75C57.152 75 58.4676 73.7016 58.4676 72.1082ZM40.9254 2.89181C40.9254 1.29836 39.6097 0 37.995 0C36.3803 0 35.0646 1.29836 35.0646 2.89181C35.0646 4.48525 36.3803 5.7836 37.995 5.7836C39.6197 5.7836 40.9254 4.49508 40.9254 2.89181ZM40.9254 20.1934C40.9254 18.6 39.6097 17.3016 37.995 17.3016C36.3803 17.3016 35.0646 18.6 35.0646 20.1934C35.0646 21.7869 36.3803 23.0852 37.995 23.0852C39.6197 23.0852 40.9254 21.7967 40.9254 20.1934ZM40.9254 37.4951C40.9254 35.9016 39.6097 34.6033 37.995 34.6033C36.3803 34.6033 35.0646 35.9016 35.0646 37.4951C35.0646 39.0885 36.3803 40.3869 37.995 40.3869C39.6197 40.3967 40.9254 39.0984 40.9254 37.4951ZM40.9254 54.8066C40.9254 53.2131 39.6097 51.9148 37.995 51.9148C36.3803 51.9148 35.0646 53.2131 35.0646 54.8066C35.0646 56.4 36.3803 57.6984 37.995 57.6984C39.6197 57.6984 40.9254 56.4 40.9254 54.8066ZM40.9254 72.1082C40.9254 70.5147 39.6097 69.2164 37.995 69.2164C36.3803 69.2164 35.0646 70.5147 35.0646 72.1082C35.0646 73.7016 36.3803 75 37.995 75C39.6197 75 40.9254 73.7016 40.9254 72.1082ZM23.393 2.89181C23.393 1.29836 22.0773 0 20.4627 0C18.848 0 17.5324 1.29836 17.5324 2.89181C17.5324 4.48525 18.848 5.7836 20.4627 5.7836C22.0873 5.7836 23.393 4.49508 23.393 2.89181ZM23.393 20.1934C23.393 18.6 22.0773 17.3016 20.4627 17.3016C18.848 17.3016 17.5324 18.6 17.5324 20.1934C17.5324 21.7869 18.848 23.0852 20.4627 23.0852C22.0873 23.0852 23.393 21.7967 23.393 20.1934ZM23.393 37.4951C23.393 35.9016 22.0773 34.6033 20.4627 34.6033C18.848 34.6033 17.5324 35.9016 17.5324 37.4951C17.5324 39.0885 18.848 40.3869 20.4627 40.3869C22.0873 40.3967 23.393 39.0984 23.393 37.4951ZM23.393 54.8066C23.393 53.2131 22.0773 51.9148 20.4627 51.9148C18.848 51.9148 17.5324 53.2131 17.5324 54.8066C17.5324 56.4 18.848 57.6984 20.4627 57.6984C22.0873 57.6984 23.393 56.4 23.393 54.8066ZM23.393 72.1082C23.393 70.5147 22.0773 69.2164 20.4627 69.2164C18.848 69.2164 17.5324 70.5147 17.5324 72.1082C17.5324 73.7016 18.848 75 20.4627 75C22.0873 75 23.393 73.7016 23.393 72.1082ZM5.86073 2.89181C5.86073 1.29836 4.54505 0 2.93036 0C1.31567 0 0 1.29836 0 2.89181C0 4.48525 1.31567 5.7836 2.93036 5.7836C4.54505 5.7836 5.86073 4.49508 5.86073 2.89181ZM5.86073 20.1934C5.86073 18.6 4.54505 17.3016 2.93036 17.3016C1.31567 17.3016 0 18.6 0 20.1934C0 21.7869 1.31567 23.0852 2.93036 23.0852C4.54505 23.0852 5.86073 21.7967 5.86073 20.1934ZM5.86073 37.4951C5.86073 35.9016 4.54505 34.6033 2.93036 34.6033C1.31567 34.6033 0 35.9016 0 37.4951C0 39.0885 1.31567 40.3869 2.93036 40.3869C4.54505 40.3869 5.86073 39.0984 5.86073 37.4951ZM5.86073 54.8066C5.86073 53.2131 4.54505 51.9148 2.93036 51.9148C1.31567 51.9148 0 53.2131 0 54.8066C0 56.4 1.31567 57.6984 2.93036 57.6984C4.54505 57.6984 5.86073 56.4 5.86073 54.8066ZM5.86073 72.1082C5.86073 70.5147 4.54505 69.2164 2.93036 69.2164C1.31567 69.2164 0 70.5147 0 72.1082C0 73.7016 1.31567 75 2.93036 75C4.54505 75 5.86073 73.7016 5.86073 72.1082Z" fill="url(#paint0_linear_3088_10848)"/>
<defs>
<linearGradient id="paint0_linear_3088_10848" x1="38" y1="0" x2="38" y2="75" gradientUnits="userSpaceOnUse">
<stop stop-color="#1C98CB"/>
<stop offset="1" stop-color="#1B1464"/>
</linearGradient>
</defs>
</svg>

<svg xmlns="http://www.w3.org/2000/svg" width="76" height="75" fill="none"><path fill="url(#a)" d="M73.07 5.784c-1.615 0-2.93-1.299-2.93-2.892C70.14 1.298 71.454 0 73.07 0 74.684 0 76 1.298 76 2.892c0 1.603-1.316 2.892-2.93 2.892M76 20.194c0-1.594-1.316-2.892-2.93-2.892s-2.93 1.298-2.93 2.891c0 1.594 1.315 2.892 2.93 2.892 1.614 0 2.93-1.288 2.93-2.892m0 17.301c0-1.593-1.316-2.892-2.93-2.892s-2.93 1.299-2.93 2.892c0 1.594 1.315 2.892 2.93 2.892 1.614.01 2.93-1.289 2.93-2.892m0 17.312c0-1.594-1.316-2.892-2.93-2.892s-2.93 1.298-2.93 2.892 1.315 2.891 2.93 2.891c1.614 0 2.93-1.298 2.93-2.891m0 17.301c0-1.593-1.316-2.892-2.93-2.892s-2.93 1.299-2.93 2.892c0 1.594 1.315 2.892 2.93 2.892 1.614 0 2.93-1.298 2.93-2.892M58.468 2.892c0-1.594-1.316-2.892-2.93-2.892s-2.931 1.298-2.931 2.892 1.316 2.892 2.93 2.892 2.93-1.289 2.93-2.892m0 17.301c0-1.593-1.316-2.891-2.93-2.891s-2.931 1.298-2.931 2.891c0 1.594 1.316 2.892 2.93 2.892s2.93-1.288 2.93-2.892m0 17.302c0-1.593-1.316-2.892-2.93-2.892s-2.931 1.299-2.931 2.892c0 1.594 1.316 2.892 2.93 2.892 1.615.01 2.93-1.289 2.93-2.892m0 17.312c0-1.594-1.316-2.892-2.93-2.892s-2.931 1.298-2.931 2.892 1.316 2.891 2.93 2.891 2.93-1.298 2.93-2.891m0 17.301c0-1.593-1.316-2.892-2.93-2.892s-2.931 1.299-2.931 2.892c0 1.594 1.316 2.892 2.93 2.892s2.93-1.298 2.93-2.892M40.925 2.892C40.925 1.298 39.61 0 37.995 0s-2.93 1.298-2.93 2.892 1.315 2.892 2.93 2.892c1.625 0 2.93-1.289 2.93-2.892m0 17.301c0-1.593-1.315-2.891-2.93-2.891s-2.93 1.298-2.93 2.891c0 1.594 1.315 2.892 2.93 2.892 1.625 0 2.93-1.288 2.93-2.892m0 17.302c0-1.593-1.315-2.892-2.93-2.892s-2.93 1.299-2.93 2.892c0 1.594 1.315 2.892 2.93 2.892a2.897 2.897 0 0 0 2.93-2.892m0 17.312c0-1.594-1.315-2.892-2.93-2.892s-2.93 1.298-2.93 2.892 1.315 2.891 2.93 2.891c1.625 0 2.93-1.298 2.93-2.891m0 17.301c0-1.593-1.315-2.892-2.93-2.892s-2.93 1.299-2.93 2.892c0 1.594 1.315 2.892 2.93 2.892 1.625 0 2.93-1.298 2.93-2.892M23.393 2.892c0-1.594-1.316-2.892-2.93-2.892s-2.93 1.298-2.93 2.892 1.315 2.892 2.93 2.892c1.624 0 2.93-1.289 2.93-2.892m0 17.301c0-1.593-1.316-2.891-2.93-2.891s-2.93 1.298-2.93 2.891c0 1.594 1.315 2.892 2.93 2.892 1.624 0 2.93-1.288 2.93-2.892m0 17.302c0-1.593-1.316-2.892-2.93-2.892s-2.93 1.299-2.93 2.892c0 1.594 1.315 2.892 2.93 2.892a2.897 2.897 0 0 0 2.93-2.892m0 17.312c0-1.594-1.316-2.892-2.93-2.892s-2.93 1.298-2.93 2.892 1.315 2.891 2.93 2.891c1.624 0 2.93-1.298 2.93-2.891m0 17.301c0-1.593-1.316-2.892-2.93-2.892s-2.93 1.299-2.93 2.892c0 1.594 1.315 2.892 2.93 2.892 1.624 0 2.93-1.298 2.93-2.892M5.861 2.892C5.86 1.298 4.545 0 2.93 0S0 1.298 0 2.892s1.316 2.892 2.93 2.892 2.93-1.289 2.93-2.892m0 17.301c0-1.593-1.316-2.891-2.93-2.891S0 18.6 0 20.193c0 1.594 1.316 2.892 2.93 2.892s2.93-1.288 2.93-2.892m0 17.302c0-1.593-1.316-2.892-2.93-2.892S0 35.902 0 37.495c0 1.594 1.316 2.892 2.93 2.892s2.93-1.289 2.93-2.892m0 17.312c0-1.594-1.316-2.892-2.93-2.892S0 53.213 0 54.807s1.316 2.891 2.93 2.891 2.93-1.298 2.93-2.891m0 17.301c0-1.593-1.316-2.892-2.93-2.892S0 70.515 0 72.108C0 73.702 1.316 75 2.93 75s2.93-1.298 2.93-2.892" opacity=".3"/><defs><linearGradient id="a" x1="38" x2="38" y1="0" y2="75" gradientUnits="userSpaceOnUse"><stop stop-color="#1C98CB"/><stop offset="1" stop-color="#1B1464"/></linearGradient></defs></svg>
